priv/static/svgs/icons_new/generic-betslip.svg

<svg width="32" height="32" viewBox="0 0 32 32" fill="none" xmlns="http://www.w3.org/2000/svg">
<path d="M26.5 22.375C26.5 23.5486 25.7136 24.5 24.7436 24.5L8.5625 24.5M8.5625 7.5L24.7436 7.5C25.7136 7.5 26.5 8.45139 26.5 9.625L26.5 10.7234C26.5 10.9198 26.3391 11.0751 26.1469 11.1154C25.3497 11.2824 24.75 12.0038 24.75 12.8684C24.75 13.733 25.3497 14.4544 26.1469 14.6215C26.3391 14.6617 26.5 14.8171 26.5 15.0134L26.5 16.9865C26.5 17.1829 26.3391 17.3383 26.1469 17.3785C25.3497 17.5456 24.75 18.267 24.75 19.1316C24.75 19.9962 25.3497 20.7176 26.1469 20.8846C26.3391 20.9249 26.5 21.0802 26.5 21.2766L26.5 22.2632M5.5 22.375C5.5 23.5486 6.28635 24.5 7.25636 24.5L8.99363 24.5M8.99363 7.5L7.25636 7.5C6.28635 7.5 5.5 8.4514 5.5 9.625L5.5 10.7234C5.5 10.9198 5.66089 11.0751 5.85309 11.1154C6.65033 11.2824 7.25 12.0038 7.25 12.8684C7.25 13.733 6.65033 14.4544 5.85309 14.6215C5.66089 14.6617 5.5 14.8171 5.5 15.0134L5.5 16.9865C5.5 17.1829 5.66089 17.3383 5.85309 17.3785C6.65033 17.5456 7.25 18.267 7.25 19.1316C7.25 19.9962 6.65033 20.7176 5.85309 20.8846C5.66089 20.9249 5.5 21.0802 5.5 21.2766L5.5 22.2632M19.7187 23.8289L19.7187 22.4868M19.7187 20.25L19.7187 18.9079M19.7187 16.6711L19.7187 15.3289M19.7187 13.0921L19.7187 11.75M19.7187 9.51316L19.7187 8.17105" stroke="black" stroke-linecap="round"/>
</svg>

<svg width="32" height="32" viewBox="0 0 32 32" fill="none" xmlns="http://www.w3.org/2000/svg">
  <symbol id="item" viewBox="0 0 32 32" stroke-width="1" fill="none">
    <path d="M26.5 22.375c0 1.174-.786 2.125-1.756 2.125H8.563m0-17h16.18c.97 0 1.757.951 1.757 2.125v1.098c0 .197-.16.352-.353.392a1.78 1.78 0 0 0-1.397 1.753c0 .865.6 1.586 1.397 1.753.192.04.353.196.353.392v1.973c0 .197-.16.352-.353.392a1.78 1.78 0 0 0-1.397 1.754c0 .864.6 1.586 1.397 1.753.192.04.353.195.353.392v.986m-21 .112c0 1.174.786 2.125 1.756 2.125h1.738m0-17H7.256c-.97 0-1.756.951-1.756 2.125v1.098c0 .197.16.352.353.392a1.78 1.78 0 0 1 1.397 1.753c0 .865-.6 1.586-1.397 1.753-.192.04-.353.196-.353.392v1.973c0 .197.16.352.353.392a1.78 1.78 0 0 1 1.397 1.754c0 .864-.6 1.586-1.397 1.753-.192.04-.353.195-.353.392v.986m14.219 1.566v-1.342m0-2.237v-1.342m0-2.237V15.33m0-2.237V11.75m0-2.237V8.171" stroke="currentColor" stroke-linecap="round"/>
  </symbol>
</svg>
